X: 18483
T: Hyde And Seek
R: jig
M: 6/8
K: Bminor
|:B2f dcB|cdc BFB|B2f dcd|efg {e}f3|
B2f dcB|cdc BFB|Bcd edc|~B3 B3:|
|:e2f gfe|d2e fed|c2d edc|def {B}c3|
e2f gfe|d2e fed|c2d edc|~B3 B3:|

